neru-dark-classic/22x22/actions/ledger.svg

<svg xmlns="http://www.w3.org/2000/svg" width="22" height="22" version="1.1">
 <defs>
  <style id="current-color-scheme" type="text/css">
   .ColorScheme-Text { color:#d3dae3; } .ColorScheme-Highlight { color:#3fb7ff; }
  </style>
 </defs>
 <path style="fill:currentColor" class="ColorScheme-Text" d="M 6.5 3 C 5.669 3 5 3.669 5 4.5 L 5 5 L 5 7 L 5 9 L 5 11 L 5 13 L 5 15 L 5 17 L 5 17.5 C 5 18.331 5.669 19 6.5 19 L 15 19 L 15.5 19 C 16.331 19 17 18.331 17 17.5 L 17 17 L 17 15 L 17 13 L 17 11 L 17 9 L 17 7 L 17 5 L 17 4.5 C 17 3.669 16.331 3 15.5 3 L 15 3 L 6.5 3 z M 13.408203 7 C 13.529567 7 13.649901 7.046385 13.744141 7.140625 L 14.859375 8.2558594 C 15.047855 8.4443394 15.047855 8.7412175 14.859375 8.9296875 L 13.921875 9.859375 L 12.140625 8.078125 L 13.070312 7.140625 C 13.164547 7.04639 13.286839 7 13.408203 7 z M 11.433594 8.7851562 L 13.214844 10.566406 L 8.78125 15 L 7 15 L 7 13.21875 L 11.433594 8.7851562 z"/>
</svg>

<svg xmlns="http://www.w3.org/2000/svg" width="22" height="22"><defs><style id="current-color-scheme" type="text/css"></style></defs><path d="M6.5 3C5.669 3 5 3.669 5 4.5v13c0 .831.669 1.5 1.5 1.5h9c.831 0 1.5-.669 1.5-1.5v-13c0-.831-.669-1.5-1.5-1.5h-9zm6.908 4c.122 0 .242.046.336.14l1.115 1.116a.472.472 0 0 1 0 .674l-.937.93-1.781-1.782.93-.937A.476.476 0 0 1 13.407 7zm-1.974 1.785l1.78 1.781L8.782 15H7v-1.781l4.434-4.434z" fill="currentColor" color="#d3dae3"/></svg>
